X: 21912
T: EARL MARSHALL'S REEL
R: reel
B: K\"ohler's Violin Repository, v.2, 1885 p.191 #2
F: http://www.archive.org/details/klersviolinrepos02rugg
Z: 2012 John Chambers <jc:trillian.mit.edu>
M: C|
L: 1/8
K: F
|: vF2(FA) cAAc | (A/B/c) (FA) cAAf | F2(FA) cAAc | (d/e/uf) (cA) G/G/G G2 :|
|: (f/g/a) (fc) d3f | cfAf cfAf | (a/g/f/e/) (fc) d3f | cAfd cAGA :|

%%sep 2 1 500

